X:1
T:Canon a 2. (Per tonos.)
T:Musikalisches Opfer BWV 1079
T:Johann Sebastian Bach
%%score [ 1 2 3 ]
L:1/8
M:4/4
K:Eb
V:1 treble nm="Violin"
V:2 alto nm="Viola"
V:3 bass nm="Violoncello"
V:1
 C3 D E=EF^F | G4 A2- A/F/_D/C/ | =B,2 z2 z2 G2- | G2 ^F4 =F2- | F2 =E4 _E2- | E2 D2- D^CB,=A, | %6
 D2 z2 z2 G2- | G2 F2 =E4 |[K:F] D3 E F^FG^G | A4 B2- B/G/_E/D/ | ^C2 z2 z2 A2- | A2 ^G4 =G2- | %12
 G2 ^F4 =F2- | F2 E2- E^DC=B, | E2 z2 z2 A2- | A2 G2 ^F4 |[K:G] E3 F G^GA^A | B4 c2- c/A/=F/E/ | %18
 ^D2 z2 z2 B2- | B2 ^A4 =A2- | A2 ^G4 =G2- | G2 F2- F^ED^C | F2 z2 z2 B2- | B2 A2 ^G4 | %24
[K:A] F3 G A^AB^B | c4 d2- d/B/=G/F/ | ^E2 z2 z2 c2- | c2 ^B4 =B2- | B2 ^A4 =A2- | A2 G2- G^^FE^D | %30
 G2 z2 z2 c2- | c2 B2 ^A4 |[K:B] G3 A B^Bc^^c | d4 e2- e/c/=A/G/ | ^^F2 z2 z2 d2- | d2 ^^c4 ^c2- | %36
 c2 ^B4 =B2- | B2 A2- A^^GF^E | A2 z2 z2 d2- | d2 c2 ^B4 |[K:Db] B3 c d=de=e | f4 g2- g/e/_c/B/ | %42
 =A2 z2 z2 f2- | f2 =e4 _e2- | e2 =d4 _d2- | d2 c2- c=BA=G | c2 z2 z2 f2- | f2 e2 =d4 | x8 |] %49
V:2
 z8 | z/ G,/B,/D/ G4 F=E | F2- F/=B,/=A,/B,/ C/G,/C/D/ E2- | EEDC B,2- B,/C/B,/=A,/ | %4
 G,^G, =A,2 z B,A,=G, | ^F,G,/F,/ G,/=A,/G,/=F,/ =E,/D,/E,/F,/ G,/E,/F,/G,/ | %6
 =A, G2 F/=E/ FD =B,E/D/ | ^CD/=E/ F^G, =A,2 z2 |[K:F] z A,- A,/C/=B,/A,/ ^G,/A,/B,/C/ D/F/E/D/ | %9
 C/A,/C/E/ A4 G^F | G2- G/^C/=B,/C/ D/A,/D/E/ F2- | FFED C2- C/D/C/=B,/ | A,^A, =B,2 z CB,=A, | %13
 ^G,A,/G,/ A,/=B,/A,/=G,/ ^F,/E,/F,/G,/ A,/F,/G,/A,/ | =B, A2 G/^F/ GE ^CF/E/ | %15
 ^DE/^F/ G^A, =B,2 z2 |[K:G] z B,- B,/D/^C/B,/ ^A,/B,/C/D/ E/G/F/E/ | D/B,/D/F/ B4 A^G | %18
 A2- A/^D/^C/D/ E/B,/E/F/ G2- | GGFE D2- D/E/D/^C/ | B,C ^C2 z DCB, | %21
 ^A,B,/A,/ B,/^C/B,/=A,/ ^G,/F,/G,/A,/ B,/G,/A,/B,/ | ^C B2 A/^G/ AF ^DG/F/ | =F^F/^G/ AC ^C2 z2 | %24
[K:A][K:treble] z C- C/E/^D/C/ ^B,/C/D/E/ F/A/G/F/ | E/C/E/G/ c4 B^A | %26
 B2- B/^E/^D/E/ F/C/F/G/ A2- | AAGF E2- E/F/E/^D/ | C^^C ^D2 z ED^C | %29
 ^B,C/^B,/ C/^D/C/=B,/ ^A,/G,/A,/B,/ C/A,/B,/C/ | ^D c2 B/^A/ BG ^EA/G/ | ^^FG/^A/ B^^C ^D2 z2 | %32
[K:B] z D- D/F/^E/D/ ^^C/D/E/F/ G/B/A/G/ | F/D/F/A/ d4 c^B | c2- c/^^F/^E/F/ G/D/G/A/ B2- | %35
 BBAG F2- F/G/F/^E/ | D^^D ^E2 z FE^D | ^^CD/C/ D/^E/D/^C/ ^B,/A,/=C/^C/ D/B,/C/D/ | %38
 ^E d2 c/^B/ cA ^^FB/A/ | ^^GA/^B/ c^^D ^E2 z2 |[K:Db] z F- F/A/=G/F/ =E/F/G/A/ B/d/c/B/ | %41
 A/F/A/c/ f4 e=d | e2- e/=A/=G/A/ B/F/B/c/ d2- | ddcB A2- A/B/A/=G/ | F^F =G2 z AG=F | %45
 =EF/E/ F/=G/F/_E/ =D/C/D/E/ F/D/E/F/ | =G f2 e/=d/ ec =Ad/c/ | =Bc/=d/ e^F =G2 z2 | x8 |] %49
V:3
 z/ C,/E,/G,/ C4 B,=A, | B,2- _B,/=E,/D,/E,/ F,/C,/F,/G,/ A,2- |[K:Eb] A,A,G,F, E,2- E,/F,/E,/D,/ | %3
 C,^C, D,2 z E,D,=C, | =B,,C,/B,,/ C,/D,/C,/_B,,/ =A,,/G,,/A,,/B,,/ C,/A,,/B,,/C,/ | %5
 D, C2 B,/=A,/ B,G, =E,A,/G,/ | ^F,G,/=A,/ B,^C, D,2 z2 | %7
 z D,- D,/F,/=E,/D,/ ^C,/D,/E,/F,/ G,/B,/=A,/G,/ |[K:F] F,/D,/F,/A,/ D4 C=B, | %9
 C2- C/^F,/E,/F,/ G,/D,/G,/A,/ B,2- | B,B,A,G, F,2- F,/G,/F,/E,/ | D,^D, E,2 z F,E,=D, | %12
 ^C,D,/C,/ D,/E,/D,/=C,/ =B,,/A,,/B,,/C,/ D,/B,,/C,/D,/ | E, D2 C/=B,/ CA, ^F,B,/A,/ | %14
 ^G,A,/=B,/ C^D, E,2 z2 | z E,- E,/G,/^F,/E,/ ^D,/E,/F,/G,/ A,/C/=B,/A,/ | %16
[K:G][K:alto] G,/E,/G,/B,/ E4 D^C | D2- D/^G,/F,/G,/ A,/E,/A,/B,/ C2- | CCB,A, G,2- G,/A,/G,/F,/ | %19
 E,^E, F,2 z G,F,=E, | ^D,E,/D,/ E,/F,/E,/=D,/ ^C,/B,,/C,/D,/ E,/C,/D,/E,/ | %21
 F, E2 D/^C/ DB, ^G,C/B,/ | ^A,B,/^C/ D^E, F,2 z2 | %23
 z F,- F,/A,/^G,/F,/ =F,/^F,/G,/A,/ B,/D/^C/B,/ |[K:A] A,/F,/A,/C/ F4 E^D | %25
 E2- E/^A,/G,/A,/ B,/F,/B,/C/ D2- | DDCB, A,2- A,/B,/A,/G,/ | F,^^F, G,2 z A,G,^F, | %28
 ^E,F,/E,/ F,/G,/F,/=E,/ ^D,/C,/D,/E,/ F,/D,/E,/F,/ | G, F2 E/^D/ EC ^A,D/C/ | %30
 ^B,C/^D/ E^^F, G,2 z2 | z G,- G,/B,/^A,/G,/ ^^F,/G,/A,/B,/ C/E/^D/C/ |[K:B] B,/G,/B,/D/ G4 F^E | %33
 F2- F/^B,/A,/B,/ C/G,/C/D/ E2- | EEDC B,2- B,/C/B,/A,/ | G,^^G, A,2 z B,A,^G, | %36
 ^^F,G,/F,/ G,/A,/G,/^F,/ ^E,/D,/=F,/^F,/ G,/E,/F,/G,/ | A, G2 F/^E/ FD ^B,E/D/ | %38
 ^^CD/^E/ F^^G, A,2 z2 | z A,- A,/C/^B,/A,/ ^^G,/A,/B,/C/ D/F/^E/D/ |[K:Db] D/B,/D/F/ B4 A=G | %41
 A2- A/=D/C/D/ E/B,/E/F/ G2- | GGFE D2- D/E/D/C/ | B,=B, C2 z DC_B, | %44
 =A,B,/A,/ B,/C/B,/_A,/ =G,/F,/G,/A,/ B,/G,/A,/B,/ | C B2 A/=G/ AF =DG/F/ | =EF/=G/ A=B, C2 z2 | %47
 z C- C/E/=D/C/ =B,/C/D/E/ F/A/=G/F/ | x8 |] %49

